X:1
T:Christus factus est
T:Christus factus est
T:Giovanni Matteo Asola (c. 1532-1609)
T:2009 by Paul R. Marchesano. May be freely copied for nonprofit use.
T:2009 by Paul R. Marchesano. May be freely copied for nonprofit use.
T:2009 by Paul R. Marchesano. May be freely copied for nonprofit use.
T:2009 by Paul R. Marchesano. May be freely copied for nonprofit use.
T:2009 by Paul R. Marchesano. May be freely copied for nonprofit use.
C:Giovanni Matteo Asola
C:(c. 1532-1609)
Z:2009 by Paul R. Marchesano. May be freely copied for nonprofit use.
%%score 1 2 3 4
L:1/8
Q:1/4=108
M:4/4
K:F
V:1 treble nm="Soprano" snm="S."
V:2 treble nm="Alto" snm="A."
V:3 treble-8 nm="Tenor" snm="T."
V:4 bass nm="Bass" snm="B."
V:1
 z8 | z8 | F8 | G8 | F4 A4 | c6 BA | B8 | A8 | z4 B4- | B2 B2 A4 | G4 B4 | A4 c4 | c4 c4 | c4 z4 | %14
w: ||Chri-||stus Chri-|||stus|fac-|* tus est|pro no-|bis o-|be- di-|ens,|
 F4 c4- | c2 B2 A2 G2 | F2 G2 A4 | G4 c4- | c2 c2 c4 | d8 | G8 | A8 | A4 B4- | B4 B3 A/G/ | %24
w: o- be-|* di- ens, us-|que ad mor-|tem, us-|* que ad|mor-|tem,|mor-|tem, au-|* tem _ _|
 A2 B4 A2 | B4 d4- | d4 c4 | B8 | A4 B4- | B8 | F4 z4 | c8 | B8 | B8 | A6 G2 | F6 ED | E2 F4 E2 | %37
w: cru- * *|cis, mor-|* tem|au-|tem cru-||cis,|mor-||tem|au- tem|cru- * *||
 F8- | F8- | F8 || c6 c2 | c2 c2 d3 c | B4 A4- | A4 z4 | z8 | F6 G2 | A2 B2 c4 | A4 z4 | B3 c d4- | %49
w: cis.|_||Pro- pter|quod et De- *|* us|_||ex- al-|ta- vit il-|lum,|ex- * *|
 d2 c2 B2 A2 | c4 c2 c2 | d6 c2 | B2 A2 G2 c2- | c2 B2 c4 | F8 | z8 | z4 z2 c2 | d6 c2 | %58
w: * al- ta- vit|il- lum, et|de- dit|il- li no- *||men,||et|de- dit|
 B3 A G2 F2 | G2 A3 G/F/ G2 | A4 z4 | z8 | z8 | c8 | A4 c4 | d6 d2 | c4 B4 | A4 B3 A/G/ | F4 G4 | %69
w: il- * * li|no- * * * *|men,|||quod|est su-|* per|o- mne|no- * * *||
 A4 G4- | G4 A2 c2- | c2 B2 c3 B | AG A4 G2 | F4 G4 | A2 A2 B2 d2- | d2 c2 B4 | A8 |] %77
w: men, quod|_ est su-|* per o- *|* * * mne|no- *|men, su- per o-|* mne no-|men.|
V:2
 z8 | z8 | z8 | C8 | D8 | C4 F4- | F2 D2 E4 | F4 C4 | D4 F4- | F2 E2 F4 | D4 E4 | F2 F2 G3 F | %12
w: |||Chri-||stus Chri-||stus Chri-|stus fac-|* tus est|pro no-|bis o- be- *|
 E2 D2 C4 | z4 C4 | F6 E2 | D4 z4 | z8 | z4 G4 | F2 E2 D2 C2- | C2 B,A, B,2 A,2 | C8 | C4 F4- | %22
w: * di- ens,|o-|be- di-|ens,||us-|que ad mor- *||tem,|mor- tem|
 F4 D3 E | F4 G4 | F8 | F8 | F6 F2 | G4 _E4 | F4 G4- | G4 F4 | z4 B4- | B2 AG A4- | A2 G2 G4- | %33
w: _ au- *|* tem|cru-|cis,|mor- tem|au- tem|cru- *|* cis,|mor-||* tem au-|
 G2 G2 G4 | F4 z2 C2- | C2 B,A, B,4 | C8 | C6 C2 | D8 | C8 || A6 A2 | A2 A2 G2 F2- | F2 E2 F4- | %43
w: * tem cru-|cis, mor-||tem|au- tem|cru-|cis.|Pro- pter|quod et De- *|* * us|
 F4 z4 | z8 | z4 F4- | F2 G2 A2 B2 | c4 G4 | z4 B4- | B2 A2 G2 F2 | G4 A2 A2 | B6 A2 | %52
w: _||ex-|* al- ta- vit|il- lum,|ex-|* al- ta- vit|il- lum, et|de- dit|
 G2 F2 E3 D/C/ | D4 C4 | z8 | z4 z2 E2 | F6 E2 | ^F2 G2 A3 G | FE D3 C/B,/ C2 | D8 | E2 F4 G2- | %61
w: il- li no- * *|* men,||et|de- dit|il- li no- *||men,|et de- *|
 G2 F2 E2 D2 | E4 F4 | E4 F4- | F4 A4 | B8 | A4 G2 E2 | F4 F4 | z4 B,4 | C8- | C8 | G3 FED E2 | %72
w: * dit il- li|no- *|men, quod|_ est|su-|per o- mne|no- men,|quod|est|_|su- * * * *|
 F2 F4 G2 | A2 F4 E2 | F8- | F8- | F8 |] %77
w: per o- mne|no- * *|men.|_||
V:3
 F8 | G8 | F4 z2 f2- | f2 ed e4 | f8- | f4 z2 d2- | dcBA B4 | c4 f4- | f2 e2 d4- | d2 cB c2 d2- | %10
w: Chri-||stus Chri-||stus|_ Chri-||stus fac-|* tus est|_ _ _ _ pro|
 d2 c2 B4 | c4 e2 g2- | g2 f2 e2 d2 | c2 B2 A2 c2- | c2 B2 c2 c2 | f6 e2 | d2 c4 f2- | %17
w: _ _ no-|bis o- be-|* di- ens, us-|que ad mor- *|* * tem, o-|be- di-|ens, o- be-|
 f2 ed e2 d2 | c2 B2 A2 G2 | F4 f4- | f2 ed e4 | f4 c4 | c2 f3 edc | d4 _e4 | d4 c4 | d8 | z4 c4 | %27
w: * * * * di-|ens, us- que ad|mor- *||tem, mor-|tem au- * * *|* tem|cru- *|cis,|mor-|
 d4 B4 | c4 _e4- | e4 d4- | d4 f4- | f4 f4 | d8 | _e8 | c8 | F8 | G2 A2 G4 | A6 A2 | B8 | A8 || %40
w: tem au-|tem cru-|* cis,|_ mor-|* tem|au-|tem|cru-|cis,|mor- * tem|au- tem|cru-|cis.|
 f6 f2 | e2 e2 d4- | d2 B2 c4 | c6 d2 | e2 f2 g4 | d8 | z4 c4 | c2 d2 e2 f2 | g4 d2 f2- | %49
w: Pro- pter|quod et De-|* * us|ex- al-|ta- vit il-|lum,|ex-|* al- ta- vit|il- lum, ex-|
 f2 f2 d2 f2 | f2 e2 f4 | z8 | z4 z2 e2 | f6 _e2 | d6 c2 | B2 d3 c c2- | c2 =B2 c4 | z4 A4 | %58
w: * al- ta- vit|il- * lum,||et|de- dit|il- li|no- * * *|* * men,|et|
 B6 A2 | G2 F2 B4 | A2 c2 d4- | d2 c2 B2 A2 | G2 c4 =B2 | c4 c4- | c4 f4 | f8 | f4 d2 B2 | %67
w: de- dit|il- li no-|men, et de-|* dit il- li|no- * *|men, quod|_ est|su-|per o- mne|
 c4 d3 c | de f4 e2 | f4 e4- | e2 e2 f2 e2 | d4 c4 | c8 | c4 z2 c2- | c2 c2 d2 d2 | B2 c2 d4 | %76
w: no- * *||men, quod|_ est su- per|o- mne|no-|men, quod|_ est su- per|o- mne no-|
 c8 |] %77
w: men.|
V:4
 z8 | C,8 | D,8 | C,8 | z8 | F,8 | G,8 | F,8 | B,6 A,2 | G,4 F,4 | G,8 | F,4 C,4 | C6 B,2 | %13
w: |Chri-||stus||Chri-||stus|fac- tus|est pro|no-|bis o-|be- di-|
 A,2 G,2 F,2 E,2 | D,4 C,4 | z8 | z4 F,4 | C6 B,2 | A,2 G,2 F,2 E,2 | D,8 | C,8 | F,8 | F,4 B,4- | %23
w: ens, us- que ad|mor- tem,||o-|be- di-|ens, us- que ad|mor-|tem,|mor-|tem au-|
 B,4 _E,4 | F,8 | B,,4 B,4- | B,4 A,4 | G,8 | F,4 _E,4- | E,4 B,,4 | B,8 | F,8 | G,8 | _E,8 | %34
w: * tem|cru-|cis, mor-|* tem|au-|tem cru-|* cis,|mor-|tem|au-|tem|
 F,6 =E,2 | D,8 | C,2 C,4 C,2 | F,6 F,2 | B,,8 | F,8 || F,6 F,2 | A,2 A,2 B,3 A, | G,4 F,2 F,2- | %43
w: cru- *||cis, mor- tem|au- tem|cru-|cis.|Pro- pter|quod et De- *|* us ex-|
 F,2 G,2 A,2 B,2 | C4 G,4 | z8 | F,6 G,2 | A,2 B,2 C4 | G,4 B,4- | B,2 F,2 B,2 D2 | C4 F,4 | z8 | %52
w: * al- ta- vit|il- lum,||ex- al-|ta- vit il-|lum, ex-|* al- ta- vit|il- lum,||
 z8 | z4 A,4 | B,6 A,2 | G,2 F,2 E,3 D,/C,/ | D,4 C,4 | z8 | z8 | z8 | z2 A,2 B,4- | %61
w: |et|de- dit|il- li no- * *|* men,||||et de-|
 B,2 A,2 G,2 F,2 | E,3 D,/C,/ D,4 | C,4 F,4- | F,4 F,4 | B,,8 | F,4 G,4 | F,4 B,4- | B,2 A,2 G,4 | %69
w: * dit il- li|no- * * *|men, quod|_ est|su-|per o-|mne no-||
 F,4 C,4- | C,4 F,4 | G,4 A,4 | F,6 E,2 | F,4 C,4 | F,4 B,,4- | B,,2 A,,2 B,,4 | F,8 |] %77
w: men, quod|_ est|su- per|o- mne|no- *|men, o-|* mne no-|men.|

